symbols/web/sim_card_download/materialsymbolsrounded/sim_card_download_fill1_48px.svg

<svg xmlns="http://www.w3.org/2000/svg" height="48" width="48"><path d="M11 44q-1.2 0-2.1-.9Q8 42.2 8 41V17.2q0-.6.225-1.15.225-.55.675-1L19.05 4.9q.45-.45 1-.675Q20.6 4 21.2 4H37q1.2 0 2.1.9.9.9.9 2.1v34q0 1.2-.9 2.1-.9.9-2.1.9Zm13.1-10.5q.3 0 .55-.1.25-.1.5-.35l5.7-5.7q.45-.45.45-1.05 0-.6-.45-1.1-.45-.4-1.1-.4-.65 0-1.05.4l-3.1 3.1v-8.2q0-.65-.425-1.075-.425-.425-1.075-.425-.65 0-1.075.425-.425.425-.425 1.075v8.2l-3.1-3.1q-.45-.45-1.05-.45-.6 0-1.05.45-.45.45-.45 1.1 0 .65.45 1.05l5.65 5.7q.25.25.5.35.25.1.55.1Z"/></svg>

<svg xmlns="http://www.w3.org/2000/svg" height="48" width="48"><path d="M11 44Q9.8 44 8.9 43.1Q8 42.2 8 41V17.2Q8 16.6 8.225 16.05Q8.45 15.5 8.9 15.05L19.05 4.9Q19.5 4.45 20.05 4.225Q20.6 4 21.2 4H37Q38.2 4 39.1 4.9Q40 5.8 40 7V41Q40 42.2 39.1 43.1Q38.2 44 37 44ZM24.1 33.5Q24.4 33.5 24.65 33.4Q24.9 33.3 25.15 33.05L30.85 27.35Q31.3 26.9 31.3 26.3Q31.3 25.7 30.85 25.2Q30.4 24.8 29.75 24.8Q29.1 24.8 28.7 25.2L25.6 28.3V20.1Q25.6 19.45 25.175 19.025Q24.75 18.6 24.1 18.6Q23.45 18.6 23.025 19.025Q22.6 19.45 22.6 20.1V28.3L19.5 25.2Q19.05 24.75 18.45 24.75Q17.85 24.75 17.4 25.2Q16.95 25.65 16.95 26.3Q16.95 26.95 17.4 27.35L23.05 33.05Q23.3 33.3 23.55 33.4Q23.8 33.5 24.1 33.5Z"/></svg>
